X:1
T:Mit Freuden Zart, 87.87.887
T:Mit Freuden Zart, 87.87.887
T:Kirchengesänge, Bohemian Brethren, 1566
T:Public Domain Courtesy of the Cyber Hymnal™
C:Kirchengesänge, Bohemian Brethren, 1566
Z:Public Domain
Z:Courtesy of the Cyber Hymnal™
%%score ( 1 2 ) ( 3 4 )
L:1/8
Q:1/4=155
M:3/2
K:Eb
V:1 treble 
V:2 treble 
V:3 bass 
V:4 bass 
V:1
 [B,E]4 | [EG]2 [DA]2 [EB]4 [Ee]4 | [Ed]2 [Ec]2 [EB]4 (c3 B) | [FA]2 [EG]2 [DF]4 (G2 A2) | %4
 F4 E6 [B,E]4 | [EG]2 [DA]2 [EB]4 [Ee]4 | [Ed]2 [Ec]2 [EB]4 (c3 B) | [FA]2 [EG]2 [DF]4 (G2 A2) | %8
 F4 (E6 [Ge]4) | [Gd]2 [^Fc]2 [DB]4 [Ee]4 | [Fd]2 [Fc]2 [FB]4 [DB]4 x2 | E2 [DF]2 [EG]4 [B,E]4 | %12
 [EG]2 [E=A]2 [DB]4 [EB]4 x2 | [Ec]2 [EA]2 [DF]4 (G2 A2) | F4 [B,E]4 |] %15
V:2
 x4 | x12 | x8 =E4 | x8 E4 | (E2 D2) E6 x4 | x12 | x8 =E4 | x8 E4 | (E2 D2) E6 x4 | x12 | x14 | %11
 E2 x10 | x14 | x8 E4 | (E2 D2) x4 |] %15
V:3
 [E,G,]4 | [E,B,]2 [F,B,]2 G,4 [G,,B,]4 | [A,,B,]2 [C,A,]2 G,4 (G,2 C2) | %3
 [F,C]2 B,2 z2 ([G,B,]2 [F,C]2) x2 | z2 z A, [E,G,]6 [E,G,]4 | [E,B,]2 [F,B,]2 G,4 [G,,B,]4 | %6
 [A,,B,]2 [C,A,]2 A,4 (G,2 C2) | [F,C]2 B,2 z2 ([G,B,]2 [F,C]2) x2 | z2 z A, [E,G,]6 [C,C]4 | %9
 [D,B,]2 [D,=A,]2 G,4 [C,G,]4 | [D,B,]2 [F,=A,]2 [B,D]4 z2 x4 | [G,B,]2 [F,A,]2 [E,B,]4 G,4 | %12
 [C,C]2 [F,C]2 z2 (E2 _D2) x4 | C4 z2 [A,B,]2 ([G,B,]2 [F,C]2) | z2 z A, [E,G,]4 |] %15
V:4
 x4 | x12 | x4 (E,2 _D,2) C,4 | x2 (G,A,) (B,4 A,2) x2 | B,3 B,,2 x9 | x4 G,4 x4 | %6
 x4 (E,2 _D,2) C,4 | x2 (G,A,) (B,4 A,2) x2 | B,3 B,,2 x9 | x12 | x8 (B,4 _A,2) | x8 (E,2 D,2) | %12
 x4 (B,4 A,2) G,4 | (A,2 G,2) B,4 x4 | B,6 B,,2 |] %15

